src/icons/main-issue-filled.svg

<svg enable-background="new 0 0 14 14" viewBox="0 0 14 14" xmlns="http://www.w3.org/2000/svg"><path d="m7 0c-3.9 0-7 3.1-7 7s3.1 7 7 7 7-3.1 7-7-3.1-7-7-7zm.7 11.2h-1.4v-1.4h1.4zm0-2.1h-1.4v-6.3h1.4z" fill="#4d5969"/></svg>

<?xml version="1.0" encoding="utf-8"?>
<!-- Generator: Adobe Illustrator 20.1.0, SVG Export Plug-In . SVG Version: 6.00 Build 0)  -->
<svg version="1.1" id="Layer_1" xmlns="http://www.w3.org/2000/svg" xmlns:xlink="http://www.w3.org/1999/xlink" x="0px" y="0px"
	 viewBox="0 0 14 14" style="enable-background:new 0 0 14 14;" xml:space="preserve">
<style type="text/css">
	.st0{fill:#4D5969;}
</style>
<title>HDL/Icon/Standard/issue_filled</title>
<desc>Created with Sketch.</desc>
<g id="Colors">
	<g id="Main-Icons" transform="translate(-121.000000, -1581.000000)">
		<g id="Issue-Filled" transform="translate(100.000000, 1563.000000)">
			<g id="HDL_x2F_Icon_x2F_Standard_x2F_error" transform="translate(21.000000, 18.000000)">
				<path id="Shape" class="st0" d="M7,0C3.1,0,0,3.1,0,7s3.1,7,7,7s7-3.1,7-7S10.9,0,7,0z M7.7,11.2H6.3V9.8h1.4V11.2z M7.7,9.1
					H6.3V2.8h1.4V9.1z"/>
			</g>
		</g>
	</g>
</g>
</svg>
